img/service-size-icon__10.svg

<svg width="23" height="25" viewBox="0 0 23 25" fill="none" xmlns="http://www.w3.org/2000/svg">
<path d="M22.6864 10.4886L19.6087 3.75098C19.3046 3.08536 18.9598 2.73033 18.2911 2.39405C18.2736 2.38521 18.2554 2.37745 18.2369 2.37076L16.0844 1.59742L16.0729 1.12941C16.0683 0.944445 15.9596 0.777942 15.7921 0.699329L14.3995 0.0462538C14.2689 -0.0150742 14.1179 -0.015416 13.987 0.0452284C13.9675 0.0542616 13.949 0.0649061 13.9311 0.076283C13.9179 0.0815076 13.9047 0.087074 13.8918 0.0935681C13.1625 0.458753 12.3355 0.651819 11.5 0.651819C10.6646 0.651819 9.83759 0.458753 9.10834 0.0935193C9.0954 0.0870252 9.08227 0.0815076 9.06908 0.076283C9.05111 0.0649061 9.03261 0.0542616 9.01308 0.0452284C8.88217 -0.0153672 8.73124 -0.0150254 8.60058 0.0462538L7.20805 0.699377C7.04052 0.777942 6.93183 0.944494 6.92729 1.12945L6.91577 1.59747L4.76323 2.37076C4.74468 2.37745 4.72656 2.38521 4.70898 2.39405C4.04028 2.73033 3.69551 3.08541 3.39146 3.75098L0.313729 10.4886C0.211873 10.7116 0.29117 10.9756 0.49908 11.1056L4.17598 13.4036V19.6987L3.69287 22.9756C3.65733 23.2166 3.80493 23.4469 4.03872 23.5154L9.04247 24.9803C9.08739 24.9935 9.13358 25 9.17968 25C9.25141 25 9.32289 24.9841 9.38876 24.9529L10.4193 24.4646C10.5898 24.3838 10.6985 24.212 10.6985 24.0234V22.5585H12.3015V24.0234C12.3015 24.2121 12.4102 24.3839 12.5807 24.4647L13.6112 24.953C13.6771 24.9842 13.7486 25 13.8203 25C13.8664 25 13.9126 24.9935 13.9575 24.9804L18.9613 23.5155C19.1951 23.447 19.3427 23.2167 19.3071 22.9756L18.824 19.6988V13.4036L22.5009 11.1056C22.7089 10.9756 22.7882 10.7116 22.6864 10.4886ZM15.2121 5.85405L13.3866 5.32168L14.5112 1.17726L15.104 1.45528L15.2121 5.85405ZM7.89609 1.45528L8.48891 1.17726L9.61351 5.32168L7.78793 5.85405L7.89609 1.45528ZM10.6985 21.582V17.0371C10.6985 16.7675 10.4799 16.5489 10.2102 16.5489C9.94057 16.5489 9.72196 16.7675 9.72196 17.0371V23.7145L9.13856 23.9909L4.721 22.6976L5.14731 19.8057C5.15078 19.7822 5.15254 19.7584 5.15254 19.7345V9.22661C5.15254 8.95698 4.93393 8.73833 4.66426 8.73833C4.39458 8.73833 4.17598 8.95698 4.17598 9.22661V12.252L1.38008 10.5046L4.27969 4.15679C4.48706 3.70284 4.6706 3.51011 5.12192 3.2796L6.88998 2.64439L6.79526 6.49785C6.79145 6.65361 6.86215 6.80186 6.98564 6.89687C7.10913 6.99184 7.2705 7.02207 7.42011 6.97866L9.72201 6.30732V12.6426C9.72201 12.9122 9.94061 13.1309 10.2103 13.1309C10.48 13.1309 10.6986 12.9122 10.6986 12.6426V5.6563C10.6986 5.61309 10.6929 5.57007 10.6815 5.52842L9.53974 1.32081C10.1675 1.52311 10.8318 1.62838 11.5 1.62838C12.1682 1.62838 12.8326 1.52306 13.4604 1.32081L12.3186 5.52837C12.3073 5.57007 12.3016 5.61304 12.3016 5.65625V21.5819L10.6985 21.582ZM18.8241 12.252V9.22661C18.8241 8.95698 18.6055 8.73833 18.3358 8.73833C18.0661 8.73833 17.8475 8.95698 17.8475 9.22661V19.7345C17.8475 19.7584 17.8493 19.7822 17.8528 19.8057L18.2791 22.6976L13.8615 23.9909L13.2781 23.7145V6.30732L15.58 6.97866C15.7296 7.02222 15.891 6.99189 16.0145 6.89687C16.138 6.80186 16.2087 6.65366 16.2049 6.49785L16.1101 2.64439L17.8782 3.2796C18.3295 3.51011 18.5131 3.70284 18.7204 4.15679L21.62 10.5046L18.8241 12.252Z" fill="black"/>
<path d="M10.2113 14.352C9.94166 14.352 9.72291 14.5706 9.72291 14.8403C9.72291 15.1099 9.94166 15.3285 10.2113 15.3285C10.481 15.3285 10.6996 15.1099 10.6996 14.8403C10.6996 14.5706 10.481 14.352 10.2113 14.352Z" fill="black"/>
</svg>

<svg width="23" height="25" fill="none" xmlns="http://www.w3.org/2000/svg"><path d="M22.686 10.489L19.61 3.75c-.304-.666-.65-1.02-1.318-1.357a.49.49 0 00-.054-.023l-2.153-.774-.011-.468a.489.489 0 00-.28-.43L14.4.046a.488.488 0 00-.469.03A5.366 5.366 0 0111.5.652 5.365 5.365 0 019.013.045a.488.488 0 00-.412.001L7.208.7a.488.488 0 00-.28.43l-.012.468-2.153.774a.493.493 0 00-.054.023c-.669.336-1.013.691-1.318 1.357L.314 10.489a.488.488 0 00.185.617l3.677 2.298v6.295l-.483 3.277a.488.488 0 00.346.54l5.003 1.464a.486.486 0 00.347-.027l1.03-.488a.49.49 0 00.28-.442v-1.465h1.603v1.465c0 .19.108.36.279.442l1.03.488a.489.489 0 00.346.027l5.004-1.465a.488.488 0 00.346-.54l-.483-3.276v-6.295l3.677-2.298a.488.488 0 00.185-.617zm-7.474-4.635l-1.825-.532 1.124-4.145.593.278.108 4.399zM7.896 1.455l.593-.278 1.125 4.145-1.826.532.108-4.399zm2.802 20.127v-4.545a.488.488 0 00-.976 0v6.678l-.583.276-4.418-1.293.426-2.892a.487.487 0 00.006-.072V9.228a.488.488 0 00-.977 0v3.025L1.38 10.505l2.9-6.348c.207-.454.39-.647.842-.877l1.768-.636-.095 3.854a.488.488 0 00.625.48l2.302-.67v6.335a.488.488 0 00.977 0V5.656a.484.484 0 00-.018-.128L9.54 1.321a6.406 6.406 0 003.92 0l-1.14 4.207a.489.489 0 00-.017.128v15.926h-1.604zm8.126-9.33V9.227a.488.488 0 00-.977 0v10.508c0 .023.002.047.006.07l.426 2.893-4.418 1.293-.583-.276V6.306l2.302.672a.489.489 0 00.625-.481l-.095-3.854 1.768.636c.451.23.635.423.842.877l2.9 6.348-2.796 1.747z" fill="#000"/><path d="M10.211 14.352a.488.488 0 100 .977.488.488 0 000-.977z" fill="#000"/></svg>
